img/icons/mime/large/pbm.svg

<svg height="140.9" width="125.3" xmlns="http://www.w3.org/2000/svg" xmlns:xlink="http://www.w3.org/1999/xlink"><linearGradient id="a" gradientTransform="matrix(.939922 0 0 .896911 -12.081733 -3.352424)" gradientUnits="userSpaceOnUse" x1="24" x2="73" y1="16.4" y2="73.4"><stop offset="0" stop-color="#fff"/><stop offset="1" stop-color="#fff" stop-opacity="0"/></linearGradient><linearGradient id="b" gradientTransform="matrix(1.222575 0 0 .738788 -10.653167 -7.742593)" gradientUnits="userSpaceOnUse" x1="12.2" x2="107.8" y1="84" y2="84"><stop offset="0" stop-color="#46a046"/><stop offset=".4" stop-color="#df421e"/><stop offset=".7" stop-color="#ada7c8"/><stop offset="1" stop-color="#eed680"/></linearGradient><g stroke="#000"><rect fill="none" height="133.4" rx="22.9" stroke-linejoin="round" stroke-opacity=".5" stroke-width="7.5" width="117.8" x="3.8" y="3.8"/><rect fill="#df421e" height="133.4" rx="22.9" stroke-width="3.8" width="117.8" x="3.6" y="3.7"/><rect fill="url(#b)" height="67.2" rx="1.3" stroke-width="3.3" width="113.7" x="5.9" y="20.8"/></g><path d="m100.3 132.6h-75.7c-11.6 0-17.3-5.7-17.3-17.4 0 0 27.6-66.5 110.4-76.6v76.6c0 11.7-5.7 17.4-17.4 17.4z" fill="#fff" fill-opacity=".3"/><path d="m24.6 7.3h75.7c11.7 0 17.4 5.7 17.4 17.4 0 0-79.3.9-110.4 91.3v-91.3c0-10.3 7-17.4 17.3-17.4z" fill="url(#a)"/><path d="m82.2 126.2h-6.7v-31.1h10l8.2 24.1 8.2-24.1h10v31.1h-6.7v-23.2h-.1l-8.1 23.2h-6.5l-8.1-23.2h-.2zm-38.9 0v-31.1h19.3c2.5 0 4.7.7 6.4 2 2 1.4 3 3.3 3 5.7 0 1.8-.4 3.4-1.3 4.8-.4.6-.8 1.2-1.4 1.7-.6.4-1.3.9-2.2 1.4 1.6.6 2.8 1.5 3.8 2.8s1.4 2.8 1.4 4.5c0 3-1 5.2-3 6.5-1.6 1.2-3.8 1.7-6.7 1.7zm17.2-18.1c1.5 0 2.6-.3 3.4-1 .7-.7 1.1-1.7 1.1-2.9 0-2.6-1.5-4-4.5-4h-10.5v7.9zm0 13c1.5 0 2.6-.3 3.4-1 .7-.7 1.1-1.7 1.1-2.9 0-2.6-1.5-4-4.5-4h-10.5v7.9zm-41.7-6v11.1h-6.7v-31.1h18.6c2.9 0 5.2.9 6.9 2.6s2.5 4.1 2.5 7.4-.8 5.8-2.5 7.5-4 2.5-6.9 2.5zm0-14.6v9.3h8.9c1.5 0 2.7-.4 3.6-1.1.9-.8 1.4-2 1.4-3.6 0-1.5-.5-2.7-1.4-3.5-.9-.7-2.1-1.1-3.6-1.1z"/><path d="m81.5 125.6h-6.7v-31.2h10l8.2 24.1 8.2-24.1h10.1v31.2h-6.8v-23.3h-.1l-8.1 23.3h-6.5l-8.1-23.3h-.2zm-38.9 0v-31.2h19.3c2.6 0 4.7.7 6.4 2 2 1.4 3 3.4 3 5.8 0 1.7-.4 3.3-1.2 4.7-.4.7-.9 1.2-1.5 1.7-.5.5-1.3.9-2.2 1.4 1.6.6 2.9 1.5 3.8 2.8 1 1.4 1.5 2.9 1.5 4.6 0 2.9-1 5.1-3 6.4-1.7 1.2-3.9 1.8-6.8 1.8zm17.2-18.2c1.5 0 2.6-.3 3.4-1s1.1-1.6 1.1-2.9c0-2.6-1.5-3.9-4.5-3.9h-10.5v7.8zm0 13c1.5 0 2.6-.3 3.4-1s1.1-1.6 1.1-2.9c0-2.6-1.5-3.9-4.5-3.9h-10.5v7.8zm-41.7-6v11.2h-6.7v-31.2h18.7c2.8 0 5.1.9 6.8 2.6s2.5 4.2 2.5 7.4c0 3.3-.8 5.8-2.5 7.5s-4 2.5-6.8 2.5zm0-14.6v9.3h8.9c1.5 0 2.7-.3 3.6-1.1 1-.8 1.4-2 1.4-3.6 0-1.5-.4-2.7-1.4-3.4-.9-.8-2.1-1.2-3.6-1.2z" fill="#fff"/></svg>

<svg xmlns:svg="http://www.w3.org/2000/svg" xmlns="http://www.w3.org/2000/svg" xmlns:xlink="http://www.w3.org/1999/xlink" id="svg1" width="125.3" height="140.9" version="1">
<style>
.s0{
  stop-color:#46a046;
  stop-opacity:1;
}
.s1{
  stop-color:#df421e;
  stop-opacity:1;
}
.s2{
  stop-color:#ada7c8;
  stop-opacity:1;
}
.s3{
  stop-color:#eed680;
  stop-opacity:1;
}
.s4{
  stop-color:#00ff00;
  stop-opacity:1;
}
.s5{
  stop-color:#ff0000;
  stop-opacity:1;
}
.s6{
  stop-color:#7f8cff;
  stop-opacity:1;
}
.s7{
  stop-color:#ffff00;
  stop-opacity:1;
}

</style>  <metadata id="metadata15"/>
  <defs id="defs3">
    <linearGradient id="linearGradient3587">
      <stop id="stop3589" offset="0" style="stop-color:#efe0cd;stop-opacity:0.6"/>
      <stop id="stop3591" offset="1" style="stop-color:#cececd;stop-opacity:0.2"/>
    </linearGradient>
    <linearGradient id="linearGradient2832">
      <stop offset="0" id="stop2834" style="stop-color:#ffffff;stop-opacity:1"/>
      <stop offset="1" id="stop2836" style="stop-color:#ffffff;stop-opacity:0"/>
    </linearGradient>
    <linearGradient id="linearGradient839">
      <stop offset="0" id="stop840" class="s0"/>
      <stop offset="0.4" id="stop841" class="s1"/>
      <stop offset="0.7" id="stop842" class="s2"/>
      <stop offset="1" id="stop843" class="s3"/>
    </linearGradient>
    <linearGradient gradientUnits="userSpaceOnUse" gradientTransform="scale(1.353569,0.738788)" xlink:href="#linearGradient839" id="linearGradient836" x1="12.2" y1="84" x2="107.8" y2="84"/>
    <linearGradient xlink:href="#linearGradient2832" id="linearGradient2830" gradientTransform="matrix(0.939922,0,0,0.896911,-12.081733,-3.3524237)" x1="24" y1="16.4" x2="73" y2="73.4" gradientUnits="userSpaceOnUse"/>
    <linearGradient y2="93.7" x2="107.3" y1="124.3" x1="111.3" gradientTransform="matrix(0.777129,0,0,0.894628,-162.4688,12.76856)" gradientUnits="userSpaceOnUse" id="linearGradient1407" xlink:href="#linearGradient1700"/>
    <linearGradient y2="93.7" x2="107.3" y1="124.3" x1="111.3" gradientTransform="matrix(0.777129,0,0,0.894628,-2.922179,10.43077)" gradientUnits="userSpaceOnUse" id="linearGradient1390" xlink:href="#linearGradient1700"/>
    <linearGradient id="linearGradient1350">
      <stop offset="0" id="stop1352" class="s0"/>
      <stop offset="0.4" id="stop1354" class="s1"/>
      <stop offset="0.7" id="stop1356" class="s2"/>
      <stop offset="1" id="stop1358" class="s3"/>
    </linearGradient>
    <linearGradient xlink:href="#linearGradient839" id="linearGradient1360" x1="0" y1="0.5" x2="1" y2="0.5"/>
    <linearGradient xlink:href="#linearGradient1700" id="linearGradient1362" gradientTransform="matrix(0.870364,0,0,1.001961,4.612015,4.886798)" x1="123.5" y1="121.7" x2="128.7" y2="88" gradientUnits="userSpaceOnUse"/>
    <linearGradient xlink:href="#linearGradient839" id="linearGradient1363" x1="0" y1="0.5" x2="1" y2="0.5"/>
    <linearGradient id="linearGradient1353">
      <stop offset="0" id="stop1355" class="s0"/>
      <stop offset="0.4" id="stop1357" class="s1"/>
      <stop offset="0.7" id="stop1359" class="s2"/>
      <stop offset="1" id="stop1361" class="s3"/>
    </linearGradient>
    <linearGradient id="linearGradient1700">
      <stop offset="0" id="stop1701" style="stop-color:#000000;stop-opacity:0.7"/>
      <stop offset="1" id="stop1702" style="stop-color:#000000;stop-opacity:0"/>
    </linearGradient>
    <linearGradient y2="0.5" x2="1" y1="0.5" x1="0" id="linearGradient1427" xlink:href="#linearGradient839"/>
    <linearGradient id="linearGradient1417">
      <stop id="stop1419" offset="0" class="s0"/>
      <stop id="stop1421" offset="0.4" class="s1"/>
      <stop id="stop1423" offset="0.7" class="s2"/>
      <stop id="stop1425" offset="1" class="s3"/>
    </linearGradient>
    <linearGradient xlink:href="#linearGradient839" id="linearGradient1381" x1="0" y1="0.5" x2="1" y2="0.5"/>
    <linearGradient id="linearGradient1371">
      <stop offset="0" id="stop1373" class="s0"/>
      <stop offset="0.4" id="stop1375" class="s1"/>
      <stop offset="0.7" id="stop1377" class="s2"/>
      <stop offset="1" id="stop1379" class="s3"/>
    </linearGradient>
    <linearGradient y2="0.5" x2="1" y1="0.5" x1="0" id="linearGradient1374" xlink:href="#linearGradient839"/>
    <linearGradient id="linearGradient1364">
      <stop id="stop1366" offset="0" class="s0"/>
      <stop id="stop1368" offset="0.4" class="s1"/>
      <stop id="stop1370" offset="0.7" class="s2"/>
      <stop id="stop1372" offset="1" class="s3"/>
    </linearGradient>
    <linearGradient y2="0.5" x2="1" y1="0.5" x1="0" id="linearGradient1389" xlink:href="#linearGradient839"/>
    <linearGradient id="linearGradient833">
      <stop id="stop834" offset="0" class="s4"/>
      <stop id="stop837" offset="0.3" class="s5"/>
      <stop id="stop838" offset="0.8" class="s6"/>
      <stop id="stop835" offset="1" class="s7"/>
    </linearGradient>
    <linearGradient id="linearGradient1373">
      <stop id="stop1376" offset="0" class="s0"/>
      <stop id="stop1378" offset="0.4" class="s1"/>
      <stop id="stop1380" offset="0.7" class="s2"/>
      <stop id="stop1382" offset="1" class="s3"/>
    </linearGradient>
    <linearGradient y2="84" x2="107.8" y1="84" x1="12.2" gradientTransform="matrix(1.222575,0,0,0.738788,-10.653167,-7.7425927)" gradientUnits="userSpaceOnUse" id="linearGradient1401" xlink:href="#linearGradient839"/>
    <linearGradient y2="0.5" x2="1" y1="0.5" x1="0" id="linearGradient2974" xlink:href="#linearGradient839"/>
    <linearGradient id="linearGradient2964">
      <stop id="stop2966" offset="0" class="s4"/>
      <stop id="stop2968" offset="0.3" class="s5"/>
      <stop id="stop2970" offset="0.8" class="s6"/>
      <stop id="stop2972" offset="1" class="s7"/>
    </linearGradient>
    <linearGradient id="linearGradient2954">
      <stop id="stop2956" offset="0" class="s0"/>
      <stop id="stop2958" offset="0.4" class="s1"/>
      <stop id="stop2960" offset="0.7" class="s2"/>
      <stop id="stop2962" offset="1" class="s3"/>
    </linearGradient>
    <linearGradient y2="84" x2="107.8" y1="84" x1="12.2" gradientTransform="matrix(1.353569,0,0,0.738788,-182.1667,-25.6819)" gradientUnits="userSpaceOnUse" id="linearGradient2987" xlink:href="#linearGradient839"/>
    <linearGradient xlink:href="#linearGradient839" id="linearGradient1418" x1="0" y1="0.5" x2="1" y2="0.5"/>
    <linearGradient id="linearGradient1408">
      <stop offset="0" id="stop1410" class="s4"/>
      <stop offset="0.3" id="stop1412" class="s5"/>
      <stop offset="0.8" id="stop1414" class="s6"/>
      <stop offset="1" id="stop1416" class="s7"/>
    </linearGradient>
    <linearGradient id="linearGradient1397">
      <stop offset="0" id="stop1399" class="s0"/>
      <stop offset="0.4" id="stop1401" class="s1"/>
      <stop offset="0.7" id="stop1403" class="s2"/>
      <stop offset="1" id="stop1405" class="s3"/>
    </linearGradient>
    <linearGradient xlink:href="#linearGradient839" id="linearGradient1431" gradientUnits="userSpaceOnUse" gradientTransform="matrix(1.353569,0,0,0.738788,-194.7091,-13.83491)" x1="12.2" y1="84" x2="107.8" y2="84"/>
    <linearGradient y2="0.5" x2="1" y1="0.5" x1="0" id="linearGradient1430" xlink:href="#linearGradient839"/>
    <linearGradient id="linearGradient1419">
      <stop id="stop1422" offset="0" class="s4"/>
      <stop id="stop1424" offset="0.3" class="s5"/>
      <stop id="stop1426" offset="0.8" class="s6"/>
      <stop id="stop1428" offset="1" class="s7"/>
    </linearGradient>
    <linearGradient id="linearGradient1409">
      <stop id="stop1411" offset="0" class="s0"/>
      <stop id="stop1413" offset="0.4" class="s1"/>
      <stop id="stop1415" offset="0.7" class="s2"/>
      <stop id="stop1417" offset="1" class="s3"/>
    </linearGradient>
    <linearGradient y2="0.5" x2="1" y1="0.5" x1="0" id="linearGradient2256" xlink:href="#linearGradient839"/>
    <linearGradient id="linearGradient2246">
      <stop id="stop2248" offset="0" class="s4"/>
      <stop id="stop2250" offset="0.3" class="s5"/>
      <stop id="stop2252" offset="0.8" class="s6"/>
      <stop id="stop2254" offset="1" class="s7"/>
    </linearGradient>
    <linearGradient id="linearGradient2236">
      <stop id="stop2238" offset="0" class="s0"/>
      <stop id="stop2240" offset="0.4" class="s1"/>
      <stop id="stop2242" offset="0.7" class="s2"/>
      <stop id="stop2244" offset="1" class="s3"/>
    </linearGradient>
    <linearGradient y2="84" x2="107.8" y1="84" x1="12.2" gradientTransform="matrix(1.353569,0,0,0.738788,-202.1667,-3.665422)" gradientUnits="userSpaceOnUse" id="linearGradient2269" xlink:href="#linearGradient839"/>
    <linearGradient xlink:href="#linearGradient839" id="linearGradient1452" x1="0" y1="0.5" x2="1" y2="0.5"/>
    <linearGradient id="linearGradient1442">
      <stop offset="0" id="stop1444" class="s4"/>
      <stop offset="0.3" id="stop1446" class="s5"/>
      <stop offset="0.8" id="stop1448" class="s6"/>
      <stop offset="1" id="stop1450" class="s7"/>
    </linearGradient>
    <linearGradient id="linearGradient1432">
      <stop offset="0" id="stop1434" class="s0"/>
      <stop offset="0.4" id="stop1436" class="s1"/>
      <stop offset="0.7" id="stop1438" class="s2"/>
      <stop offset="1" id="stop1440" class="s3"/>
    </linearGradient>
    <linearGradient xlink:href="#linearGradient839" id="linearGradient2281" x1="0" y1="0.5" x2="1" y2="0.5"/>
    <linearGradient id="linearGradient2271">
      <stop offset="0" id="stop2273" class="s4"/>
      <stop offset="0.3" id="stop2275" class="s5"/>
      <stop offset="0.8" id="stop2277" class="s6"/>
      <stop offset="1" id="stop2279" class="s7"/>
    </linearGradient>
    <linearGradient id="linearGradient2261">
      <stop offset="0" id="stop2263" class="s0"/>
      <stop offset="0.4" id="stop2265" class="s1"/>
      <stop offset="0.7" id="stop2267" class="s2"/>
      <stop offset="1" id="stop2269" class="s3"/>
    </linearGradient>
    <linearGradient xlink:href="#linearGradient839" id="linearGradient2294" gradientUnits="userSpaceOnUse" gradientTransform="matrix(1.353569,0,0,0.738788,-163.5227,-7.733217)" x1="12.2" y1="84" x2="107.8" y2="84"/>
    <linearGradient y2="0.5" x2="1" y1="0.5" x1="0" id="linearGradient1475" xlink:href="#linearGradient839"/>
    <linearGradient id="linearGradient1465">
      <stop id="stop1467" offset="0" class="s4"/>
      <stop id="stop1469" offset="0.3" class="s5"/>
      <stop id="stop1471" offset="0.8" class="s6"/>
      <stop id="stop1473" offset="1" class="s7"/>
    </linearGradient>
    <linearGradient id="linearGradient1455">
      <stop id="stop1457" offset="0" class="s0"/>
      <stop id="stop1459" offset="0.4" class="s1"/>
      <stop id="stop1461" offset="0.7" class="s2"/>
      <stop id="stop1463" offset="1" class="s3"/>
    </linearGradient>
    <linearGradient y2="0.5" x2="1" y1="0.5" x1="0" id="linearGradient2300" xlink:href="#linearGradient839"/>
    <linearGradient id="linearGradient2290">
      <stop id="stop2292" offset="0" class="s4"/>
      <stop id="stop2294" offset="0.3" class="s5"/>
      <stop id="stop2296" offset="0.8" class="s6"/>
      <stop id="stop2298" offset="1" class="s7"/>
    </linearGradient>
    <linearGradient id="linearGradient2280">
      <stop id="stop2282" offset="0" class="s0"/>
      <stop id="stop2284" offset="0.4" class="s1"/>
      <stop id="stop2286" offset="0.7" class="s2"/>
      <stop id="stop2288" offset="1" class="s3"/>
    </linearGradient>
    <linearGradient y2="84" x2="107.8" y1="84" x1="12.2" gradientTransform="matrix(1.353569,0,0,0.738788,-186.9125,-34.85186)" gradientUnits="userSpaceOnUse" id="linearGradient2313" xlink:href="#linearGradient839"/>
    <linearGradient xlink:href="#linearGradient839" id="linearGradient1498" x1="0" y1="0.5" x2="1" y2="0.5"/>
    <linearGradient id="linearGradient1488">
      <stop offset="0" id="stop1490" class="s4"/>
      <stop offset="0.3" id="stop1492" class="s5"/>
      <stop offset="0.8" id="stop1494" class="s6"/>
      <stop offset="1" id="stop1496" class="s7"/>
    </linearGradient>
    <linearGradient id="linearGradient1478">
      <stop offset="0" id="stop1480" class="s0"/>
      <stop offset="0.4" id="stop1482" class="s1"/>
      <stop offset="0.7" id="stop1484" class="s2"/>
      <stop offset="1" id="stop1486" class="s3"/>
    </linearGradient>
    <linearGradient xlink:href="#linearGradient839" id="linearGradient2325" x1="0" y1="0.5" x2="1" y2="0.5"/>
    <linearGradient id="linearGradient2315">
      <stop offset="0" id="stop2317" class="s4"/>
      <stop offset="0.3" id="stop2319" class="s5"/>
      <stop offset="0.8" id="stop2321" class="s6"/>
      <stop offset="1" id="stop2323" class="s7"/>
    </linearGradient>
    <linearGradient id="linearGradient2305">
      <stop offset="0" id="stop2307" class="s0"/>
      <stop offset="0.4" id="stop2309" class="s1"/>
      <stop offset="0.7" id="stop2311" class="s2"/>
      <stop offset="1" id="stop2313" class="s3"/>
    </linearGradient>
    <linearGradient xlink:href="#linearGradient839" id="linearGradient2338" gradientUnits="userSpaceOnUse" gradientTransform="matrix(1.353569,0,0,0.738788,-166.5735,-17.22474)" x1="12.2" y1="84" x2="107.8" y2="84"/>
  </defs>
  <rect id="rect834" width="117.8" height="133.4" x="3.8" y="3.8" ry="22.9" rx="22.9" style="fill:none;stroke-linejoin:round;stroke-opacity:0.5;stroke-width:7.5;stroke:#000"/>
  <rect id="rect828" width="117.8" height="133.4" x="3.6" y="3.7" ry="22.9" rx="22.9" style="fill:#df421e;stroke-width:3.8;stroke:#000"/>
  <rect rx="1.3" y="20.8" x="5.9" ry="1.3" height="67.2" width="113.7" id="rect832" style="fill:url(#linearGradient1401);stroke-width:3.3;stroke:#000"/>
  <path d="M100.3 132.6L24.6 132.6C13 132.6 7.3 126.9 7.3 115.2 7.3 115.2 34.9 48.7 117.7 38.6L117.7 115.2C117.7 126.9 112 132.6 100.3 132.6z" id="path2838" style="fill-opacity:0.3;fill:#fff"/>
  <path d="M24.6 7.3L100.3 7.3C112 7.3 117.7 13 117.7 24.7 117.7 24.7 38.4 25.6 7.3 116L7.3 24.7C7.3 14.4 14.3 7.3 24.6 7.3z" id="rect2063" fill="url(#linearGradient2830)"/>
  <path d="M82.2 126.2L75.5 126.2 75.5 95.1 85.5 95.1 93.7 119.2 101.9 95.1 111.9 95.1 111.9 126.2 105.2 126.2 105.2 103 105.1 103 97 126.2 90.5 126.2 82.4 103 82.2 103 82.2 126.2zM43.3 126.2L43.3 95.1 62.6 95.1C65.1 95.1 67.3 95.8 69 97.1 71 98.5 72 100.4 72 102.8 72 104.6 71.6 106.2 70.7 107.6 70.3 108.2 69.9 108.8 69.3 109.3 68.7 109.7 68 110.2 67.1 110.7 68.7 111.3 69.9 112.2 70.9 113.5 71.9 114.8 72.3 116.3 72.3 118 72.3 121 71.3 123.2 69.3 124.5 67.7 125.7 65.5 126.2 62.6 126.2L43.3 126.2zM60.5 108.1C62 108.1 63.1 107.8 63.9 107.1 64.6 106.4 65 105.4 65 104.2 65 101.6 63.5 100.2 60.5 100.2L50 100.2 50 108.1 60.5 108.1zM60.5 121.1C62 121.1 63.1 120.8 63.9 120.1 64.6 119.4 65 118.4 65 117.2 65 114.6 63.5 113.2 60.5 113.2L50 113.2 50 121.1 60.5 121.1zM18.8 115.1L18.8 126.2 12.1 126.2 12.1 95.1 30.7 95.1C33.6 95.1 35.9 96 37.6 97.7 39.3 99.4 40.1 101.8 40.1 105.1 40.1 108.4 39.3 110.9 37.6 112.6 35.9 114.3 33.6 115.1 30.7 115.1L18.8 115.1zM18.8 100.5L18.8 109.8 27.7 109.8C29.2 109.8 30.4 109.4 31.3 108.7 32.2 107.9 32.7 106.7 32.7 105.1 32.7 103.6 32.2 102.4 31.3 101.6 30.4 100.9 29.2 100.5 27.7 100.5L18.8 100.5z" id="path881" style="font-family:Trek;font-size:40;stroke-width:1"/>
  <path d="M81.5 125.6L74.8 125.6 74.8 94.4 84.8 94.4 93 118.5 101.2 94.4 111.3 94.4 111.3 125.6 104.5 125.6 104.5 102.3 104.4 102.3 96.3 125.6 89.8 125.6 81.7 102.3 81.5 102.3 81.5 125.6zM42.6 125.6L42.6 94.4 61.9 94.4C64.5 94.4 66.6 95.1 68.3 96.4 70.3 97.8 71.3 99.8 71.3 102.2 71.3 103.9 70.9 105.5 70.1 106.9 69.7 107.6 69.2 108.1 68.6 108.6 68.1 109.1 67.3 109.5 66.4 110 68 110.6 69.3 111.5 70.2 112.8 71.2 114.2 71.7 115.7 71.7 117.4 71.7 120.3 70.7 122.5 68.7 123.8 67 125 64.8 125.6 61.9 125.6L42.6 125.6zM59.8 107.4C61.3 107.4 62.4 107.1 63.2 106.4 64 105.7 64.3 104.8 64.3 103.5 64.3 100.9 62.8 99.6 59.8 99.6L49.3 99.6 49.3 107.4 59.8 107.4zM59.8 120.4C61.3 120.4 62.4 120.1 63.2 119.4 64 118.7 64.3 117.8 64.3 116.5 64.3 113.9 62.8 112.6 59.8 112.6L49.3 112.6 49.3 120.4 59.8 120.4zM18.1 114.4L18.1 125.6 11.4 125.6 11.4 94.4 30.1 94.4C32.9 94.4 35.2 95.3 36.9 97 38.6 98.7 39.4 101.2 39.4 104.4 39.4 107.7 38.6 110.2 36.9 111.9 35.2 113.6 32.9 114.4 30.1 114.4L18.1 114.4zM18.1 99.8L18.1 109.1 27 109.1C28.5 109.1 29.7 108.8 30.6 108 31.6 107.2 32 106 32 104.4 32 102.9 31.6 101.7 30.6 101 29.7 100.2 28.5 99.8 27 99.8L18.1 99.8z" id="path2342" style="fill:#fff;font-family:Trek;font-size:40;stroke-width:1"/>
</svg>
